public/avatar/shoe/72.svg

<svg xmlns:xlink="http://www.w3.org/1999/xlink" height="38.3" width="36.05" xmlns="http://www.w3.org/2000/svg"><use height="16.6" transform="translate(7.2 11.55)" width="23.85" xlink:href="#a"/><defs><g id="a" fill-rule="evenodd"><path d="m4.1-2.1 3.05 7.25v.55l.1.45v.8h-.1v.45l-.05.25v.1l-.05.1v.2L5.8 9.2l-1.75 1.1-.55.2h-.15l-.05.1-.4.2-1.2.6-2.95.95-3.4.7-3.1.25-2.8-.25-2.45-.7-.3-.3-.15-.1-.25-.3-.05-.2v-.3l-.1-.35-.1-1.3-.1-.3v-.7l.2-.4.1-.45.25-.45 1.55-2.2L-6.6-.65l1.85-1.4 1.9-.9.7-.2 1.4-.15 2.8.25 1.25.5.8.45" fill="#673c54" transform="translate(16.6 3.3)"/><path d="M-1.5-.55.85-.3l1.1.35.7.35L5.2 5.75v.35l.1.35V7h-.1v.35l-.05.2v.1l-.05.05v.1l-1.05.9-1.5.8-.45.15H2l-.05.05-.35.2-3.55 1.1-4.25.65h-2.55l-1.15-.15-2.05-.5-.4-.25-.2-.2-.15-.65-.05-1-.15-.45.1-.3.2-.6.2-.35 1.3-1.65 4.55-4.15L-3.9-.05l.6-.2 1.8-.3" fill="#f493ba" transform="translate(16.6 3.3)"/><path d="m-10.45 5.2 4.25-3.95q.45-.65 3.3.7Q0 3.35-.85 5.4-1.7 7.5-5.8 6.95q-3.85-.5-4.65-1.75" fill="#fff" transform="translate(16.6 3.3)"/><path d="M3.95 6.75q.5-1.35 0-2.95L3.5 2.65q.65.45 1.6 3.05.35 1.3-.1 2-.4 1.45-5.6 2.95-5.85 1.7-10.3.65 13-.1 14.85-4.55" fill="#e086a6" transform="translate(16.6 3.3)"/><path d="M4.25 7.6q.6-1.1.45-2.45l-.15-.9q.45.4.75 2.05l-.1 1.35q-.5 1.2-3.5 2.4-4.05 1.7-9.55 1.65 10-.5 12.1-4.1" fill="#b86e85" transform="translate(16.6 3.3)"/><path d="m-12.6 7.75-3.5.15q-1.65-.9 2.15-1.4-1.05-2.75.15-2t1.6 1.95q4.25-.45 4.8.65.5 1.15-2.15 1.15 1.9 2.35-.15 2.1-2.05-.3-2.9-2.6" fill="#692f56" transform="translate(16.6 3.3)"/><path d="M-13.4 6.85q-1-2.1-.2-1.5.95.55 1.25 1.6l3.65.1q1 .7-1.3 1 1.1 1.45-.1 1.1-1.2-.4-2.2-1.95l-2.5.3q-1.05-.15 1.4-.65" fill="#a34881" transform="translate(16.6 3.3)"/><path d="M-11.8 7.2q.5-.45 1.75-.3 1.1.1 1.2.45l-2.95-.15m-1.85-1.8q.9 0 .9 1.25l-.9-1.25" fill="#d189b9" transform="translate(16.6 3.3)"/></g></defs></svg>

<?xml version="1.0" encoding="UTF-8" standalone="no"?>
<svg xmlns:xlink="http://www.w3.org/1999/xlink" height="38.3px" width="36.05px" xmlns="http://www.w3.org/2000/svg">
  <g transform="matrix(1.0, 0.0, 0.0, 1.0, 23.8, 14.85)">
    <use height="16.6" transform="matrix(1.0, 0.0, 0.0, 1.0, -16.6, -3.3)" width="23.85" xlink:href="#shape0"/>
  </g>
  <defs>
    <g id="shape0" transform="matrix(1.0, 0.0, 0.0, 1.0, 16.6, 3.3)">
      <path d="M4.1 -2.1 L7.15 5.15 7.15 5.7 7.25 6.15 7.25 6.95 7.15 6.95 7.15 7.4 7.1 7.65 7.1 7.75 7.05 7.85 7.05 8.05 5.8 9.2 4.05 10.3 3.5 10.5 3.35 10.5 3.3 10.6 2.9 10.8 1.7 11.4 -1.25 12.35 -4.65 13.05 -7.75 13.3 -10.55 13.05 -13.0 12.35 -13.3 12.05 -13.45 11.95 -13.7 11.65 -13.75 11.45 -13.75 11.15 -13.85 10.8 -13.95 9.5 -14.05 9.2 -14.05 8.5 -13.85 8.1 -13.75 7.65 -13.5 7.2 -11.95 5.0 -6.6 -0.65 -4.75 -2.05 -2.85 -2.95 -2.15 -3.15 -0.75 -3.3 2.05 -3.05 3.3 -2.55 4.1 -2.1" fill="#673c54" fill-rule="evenodd" stroke="none"/>
      <path d="M-1.5 -0.55 L0.85 -0.3 1.95 0.05 2.65 0.4 5.2 5.75 5.2 6.1 5.3 6.45 5.3 7.0 5.2 7.0 5.2 7.35 5.15 7.55 5.15 7.65 5.1 7.7 5.1 7.8 4.05 8.7 2.55 9.5 2.1 9.65 2.0 9.65 1.95 9.7 1.6 9.9 -1.95 11.0 -6.2 11.65 -8.75 11.65 -9.9 11.5 -11.95 11.0 -12.35 10.75 -12.55 10.55 -12.7 9.9 -12.75 8.9 -12.9 8.45 -12.8 8.15 -12.6 7.55 -12.4 7.2 -11.1 5.55 -6.55 1.4 -3.9 -0.05 -3.3 -0.25 -1.5 -0.55" fill="#f493ba" fill-rule="evenodd" stroke="none"/>
      <path d="M-10.45 5.2 L-6.2 1.25 Q-5.75 0.6 -2.9 1.95 0.0 3.35 -0.85 5.4 -1.7 7.5 -5.8 6.95 -9.65 6.45 -10.45 5.2" fill="#ffffff" fill-rule="evenodd" stroke="none"/>
      <path d="M3.95 6.75 Q4.45 5.4 3.95 3.8 L3.5 2.65 Q4.15 3.1 5.1 5.7 5.45 7.0 5.0 7.7 4.6 9.15 -0.6 10.65 -6.45 12.35 -10.9 11.3 2.1 11.2 3.95 6.75" fill="#e086a6" fill-rule="evenodd" stroke="none"/>
      <path d="M4.25 7.6 Q4.85 6.5 4.7 5.15 L4.55 4.25 Q5.0 4.65 5.3 6.3 L5.2 7.65 Q4.7 8.85 1.7 10.05 -2.35 11.75 -7.85 11.7 2.15 11.2 4.25 7.6" fill="#b86e85" fill-rule="evenodd" stroke="none"/>
      <path d="M-12.6 7.75 L-16.1 7.9 Q-17.75 7.0 -13.95 6.5 -15.0 3.75 -13.8 4.5 -12.6 5.25 -12.2 6.45 -7.95 6.0 -7.4 7.1 -6.9 8.25 -9.55 8.25 -7.65 10.6 -9.7 10.35 -11.75 10.05 -12.6 7.75" fill="#692f56" fill-rule="evenodd" stroke="none"/>
      <path d="M-13.4 6.85 Q-14.4 4.75 -13.6 5.35 -12.65 5.9 -12.35 6.95 L-8.7 7.05 Q-7.7 7.75 -10.0 8.05 -8.9 9.5 -10.1 9.15 -11.3 8.75 -12.3 7.2 L-14.8 7.5 Q-15.85 7.35 -13.4 6.85" fill="#a34881" fill-rule="evenodd" stroke="none"/>
      <path d="M-11.8 7.2 Q-11.3 6.75 -10.05 6.9 -8.95 7.0 -8.85 7.35 L-11.8 7.2" fill="#d189b9" fill-rule="evenodd" stroke="none"/>
      <path d="M-13.65 5.4 Q-12.75 5.4 -12.75 6.65 L-13.65 5.4" fill="#d189b9" fill-rule="evenodd" stroke="none"/>
    </g>
  </defs>
</svg>
